build/system/DoubleArrowRightOutline.svg

<svg xmlns="http://www.w3.org/2000/svg" fill="none" viewBox="0 0 24 24" focusable="false"><path d="M0 0H24V24H0z"/><path fill="#74767B" fill-rule="evenodd" d="M8.51681 7.99882C8.64681 7.85882 8.81681 7.78882 8.99681 7.78882C9.15681 7.78882 9.30681 7.83882 9.43681 7.95882L13.4199 11.5451C13.7299 11.8251 13.7299 12.3051 13.4199 12.5851L9.44071 16.0429C9.17071 16.2829 8.76071 16.2629 8.52071 16.0029C8.28071 15.7329 8.29071 15.3229 8.56071 15.0829L12.0499 12.0651L8.55681 8.91882C8.29681 8.67882 8.27681 8.26882 8.51681 7.99882ZM12.9968 7.78882C12.8168 7.78882 12.6468 7.85882 12.5168 7.99882C12.2768 8.26882 12.2968 8.67882 12.5568 8.91882L16.0499 12.0651L12.5607 15.0829C12.2907 15.3229 12.2807 15.7329 12.5207 16.0029C12.7607 16.2629 13.1707 16.2829 13.4407 16.0429L17.4199 12.5851C17.7299 12.3051 17.7299 11.8251 17.4199 11.5451L13.4368 7.95882C13.3068 7.83882 13.1568 7.78882 12.9968 7.78882Z"/></svg>

<svg xmlns="http://www.w3.org/2000/svg" fill="none" viewBox="0 0 24 24" focusable="false"><path fill="#74767B" fill-rule="evenodd" d="M8.99 7.78c-.18 0-.35.07-.48.21-.24.27-.22.68.04.92l3.49 3.15-3.48 3.02a.65.65 0 0 0-.04.92c.24.26.65.28.92.04l3.97-3.46c.32-.28.32-.76 0-1.04L9.43 7.95a.63.63 0 0 0-.44-.17m4 0c-.18 0-.35.07-.48.21-.24.27-.22.68.04.92l3.49 3.15-3.48 3.02a.65.65 0 0 0-.04.92c.24.26.65.28.92.04l3.97-3.46c.32-.28.32-.76 0-1.04l-3.98-3.59a.63.63 0 0 0-.44-.17"/></svg>
